Sources/FrostedUI/Resources/Icons.xcassets/heart16.imageset/heart-16.svg

<svg width="16" height="16" viewBox="0 0 16 16" fill="none" xmlns="http://www.w3.org/2000/svg" data-fui-icon="true">
  <path
    d="M10.7275 2.25C12.9652 2.25015 14.75 4.13307 14.75 6.38477C14.75 7.44906 14.2814 8.4469 13.6738 9.30371C13.0613 10.1675 12.2605 10.9546 11.4844 11.6113C10.7049 12.2709 9.92867 12.8171 9.34961 13.1982C9.05933 13.3893 8.81669 13.5401 8.64551 13.6436C8.56011 13.6952 8.49245 13.7352 8.44531 13.7627C8.42187 13.7764 8.4035 13.7875 8.39062 13.7949C8.38418 13.7986 8.37863 13.8016 8.375 13.8037L8.36914 13.8066L8 13.1543L8.36816 13.8066C8.16746 13.9198 7.92798 13.9341 7.71777 13.8486L7.62891 13.8057L7.62695 13.8047C7.6259 13.8041 7.62478 13.8027 7.62305 13.8018C7.61943 13.7997 7.61385 13.7967 7.60742 13.793C7.5946 13.7856 7.57607 13.7754 7.55273 13.7617C7.50568 13.7341 7.43793 13.6936 7.35254 13.6416C7.18146 13.5375 6.93859 13.3855 6.64844 13.1934C6.06957 12.8101 5.29382 12.2607 4.51465 11.5996C3.73904 10.9415 2.93831 10.1547 2.32617 9.29297C1.71933 8.43859 1.25004 7.44322 1.25 6.38477C1.25 4.13307 3.03481 2.25015 5.27246 2.25C6.32509 2.25 7.28638 2.65748 8 3.33984C8.71362 2.65748 9.67491 2.25 10.7275 2.25ZM10.7275 3.75C9.84891 3.75 9.07827 4.20163 8.63867 4.91602L8 4.52246L7.36133 4.91602C6.92173 4.20163 6.15109 3.75 5.27246 3.75C3.91035 3.75015 2.75 4.91357 2.75 6.38477C2.75005 7.00438 3.03082 7.69448 3.54883 8.42383C4.06163 9.1458 4.76109 9.84152 5.48535 10.4561C6.20603 11.0675 6.93048 11.5809 7.47656 11.9424C7.6798 12.0769 7.85868 12.188 8.00098 12.2764C8.14316 12.1887 8.32235 12.0789 8.52539 11.9453C9.07124 11.5861 9.79533 11.0753 10.5156 10.4658C11.2395 9.85333 11.9387 9.15923 12.4512 8.43652C12.9685 7.70694 13.25 7.01265 13.25 6.38477C13.25 4.91357 12.0896 3.75015 10.7275 3.75ZM8.63867 4.91602C8.50218 5.13784 8.26046 5.27344 8 5.27344C7.73954 5.27344 7.49782 5.13784 7.36133 4.91602L8 4.52344L8.63867 4.91602Z"
    fill="currentColor"
  />
</svg>

<svg xmlns="http://www.w3.org/2000/svg" width="16" height="16" fill="none" data-fui-icon="true" viewBox="0 0 16 16"><path fill="currentColor" d="M10.728 2.25c2.237 0 4.022 1.883 4.022 4.135 0 1.064-.469 2.062-1.076 2.919-.613.864-1.413 1.65-2.19 2.307a22.5 22.5 0 0 1-3.039 2.152l-.054.032-.016.009-.006.003L8 13.154l.368.653a.75.75 0 0 1-.65.042l-.09-.043-.001-.001-.004-.003-.016-.009-.054-.031-.2-.12A22.847 22.847 0 0 1 4.515 11.6c-.776-.659-1.577-1.445-2.189-2.307-.607-.854-1.076-1.85-1.076-2.908 0-2.252 1.785-4.135 4.022-4.135 1.053 0 2.014.407 2.728 1.09a3.93 3.93 0 0 1 2.727-1.09m0 1.5c-.88 0-1.65.452-2.09 1.166L8 4.522l-.639.394A2.43 2.43 0 0 0 5.272 3.75C3.91 3.75 2.75 4.914 2.75 6.385c0 .62.28 1.31.799 2.039.513.722 1.212 1.418 1.936 2.032.721.612 1.445 1.125 1.992 1.486.203.135.382.246.524.334a21.03 21.03 0 0 0 2.515-1.81c.723-.613 1.423-1.307 1.935-2.03.518-.73.799-1.423.799-2.051 0-1.471-1.16-2.635-2.523-2.635m-2.09 1.166a.75.75 0 0 1-1.277 0L8 4.523z"/></svg>
